X:147
T:Electricity
C:Charlie Waller and John Duffey
N:Transcribed by Jason Hannan
R:bluegrass
L:1/8
Q:1/4=260
M:4/4
K:C
"G"_B2 =B_B2=B _B2 | e3_B2=B G2 | "C"DE G2 ED B,A, | "G"G,2 [g2B2G2] Dg [g2B2G2] | 
_B2 =B_B2=B _B2 | e3_B2=B G2 | "A"A,2 [e2^c2A2] ^FE ^C2 | "D"A2 [^f2d2A2] A,f [f2d2A2] | 
"G"_B2 =B_B2=B _B2 | e3_B2=B G2 | "C"C2 [e2c2G2] G,e [e2c2G2] | "B"B,2 [^f2B2A2] ^F,f [f2B2A2] | 
"C"C2 [e2c2G2] E2 G2 | "G"G,2 [g2B2G2] D2 C2 | "D"[DD]E D^C DC D2 | "G"G,2 A,_B, =B,D ED | 
G2 [g2B2G2] Dg [g2B2G2] | G,2 [g2B2G2] Dg [g2B2G2] | G,2 [g2B2G2] Dg [g2B2G2] | 
C2 [e2c2G2] G,e [e2c2G2] | G,2 [g2B2G2] Dg [g2B2G2] | G,2 [g2B2G2] Dg [g2B2G2] | 
G,2 [g2B2G2] Dg [g2B2G2] | A,2 [e2^c2A2] E,e [e2c2A2] | D2 [^f2d2A2] A,f [f2d2A2] | 
G,2 [g2B2G2] Dg [g2B2G2] | G,2 [g2B2G2] Dg [g2B2G2] | C2 [e2c2G2] G,e [e2c2G2] | 
B,2 [^f2B2A2] ^F,f [f2B2A2] | C2 [e2c2G2] G,e [e2c2G2] | G,2 [g2B2G2] Dg [g2B2G2] | 
D2 [^f2d2A2] A,f [f2d2A2] | G,2 [g2B2G2] Dg [g2B2G2] | G,2 [g2B2G2] Dg [g2B2G2] | 
G,2 [g2B2G2] Dg [g2B2G2] | G,2 [g2B2G2] Dg [g2B2G2] | _B2 =B_B2=B _B2 | e3_B2=B G2 | 
DE G2 ED B,A, | G,2 [g2B2G2] Dg [g2B2G2] | _B2 =B_B2=B _B2 | e3_B2=B G2 | A,2 [e2^c2A2] ^FE ^C2 | 
A2 [^f2d2A2] A,f [f2d2A2] | _B2 =B_B2=B _B2 | e3_B2=B G2 | C2 [e2c2G2] G,e [e2c2G2] | 
B,2 [^f2B2A2] ^F,f [f2B2A2] | C2 [e2c2G2] DE G2 | G,2 [g2B2G2] D2 C2 | [D2D2] ^CD2C D2 | 
G,2 A,_B, =B,D ED | G4 [g4B4G4D4B,4G,4] | 


